build/images/icons/calendar.svg

<svg width="24" height="24" viewBox="0 0 24 24" xmlns="http://www.w3.org/2000/svg">
  <path d="M17 3H21C21.2652 3 21.5196 3.10536 21.7071 3.29289C21.8946 3.48043 22 3.73478 22 4V20C22 20.2652 21.8946 20.5196 21.7071 20.7071C21.5196 20.8946 21.2652 21 21 21H3C2.73478 21 2.48043 20.8946 2.29289 20.7071C2.10536 20.5196 2 20.2652 2 20V4C2 3.73478 2.10536 3.48043 2.29289 3.29289C2.48043 3.10536 2.73478 3 3 3H7V1H9V3H15V1H17V3ZM15 5H9V7H7V5H4V9H20V5H17V7H15V5ZM20 11H4V19H20V11Z" fill="#A0A5C0"/>
</svg>

<svg width="24" height="24" xmlns="http://www.w3.org/2000/svg"><path d="M17 3h4a1 1 0 011 1v16a1 1 0 01-1 1H3a1 1 0 01-1-1V4a1 1 0 011-1h4V1h2v2h6V1h2v2zm-2 2H9v2H7V5H4v4h16V5h-3v2h-2V5zm5 6H4v8h16v-8z" fill="#A0A5C0"/></svg>
